openframe-frontend-core/src/components/icons-v2/brand-logos/twitter-x.svg

<svg width="24" height="24" viewBox="0 0 24 24" fill="none" xmlns="http://www.w3.org/2000/svg">
<path d="M9.75286 12.6562C10.1922 12.2169 10.9043 12.2169 11.3437 12.6562C11.783 13.0956 11.783 13.8077 11.3437 14.2471L3.79534 21.7954C3.356 22.2348 2.64386 22.2348 2.20452 21.7954C1.76518 21.3561 1.76518 20.6439 2.20452 20.2046L9.75286 12.6562ZM20.2045 2.20459C20.6439 1.76525 21.356 1.76525 21.7953 2.20459C22.2347 2.64393 22.2347 3.35607 21.7953 3.79541L14.247 11.3438C13.8077 11.7831 13.0955 11.7831 12.6562 11.3438C12.2168 10.9044 12.2168 10.1923 12.6562 9.75293L20.2045 2.20459Z" fill="#888888"/>
<path d="M7.99944 1.875L8.1342 1.88232C8.44394 1.91951 8.72696 2.08473 8.91203 2.34082L21.9125 20.3408C22.1599 20.6833 22.1942 21.1365 22.0019 21.5127C21.8095 21.8887 21.4223 22.125 20.9999 22.125H16.0004C15.6393 22.125 15.2993 21.9519 15.0878 21.6592L2.08733 3.65918C1.83998 3.31669 1.80564 2.86346 1.99797 2.4873C2.19036 2.11133 2.57757 1.875 2.99993 1.875H7.99944ZM16.5746 19.875H18.7983L7.42522 4.125H5.20159L16.5746 19.875Z" fill="#888888"/>
</svg>

<svg xmlns="http://www.w3.org/2000/svg" width="24" height="24" fill="none" viewBox="0 0 24 24">
  <path fill="#888" d="M9.753 12.656a1.125 1.125 0 1 1 1.59 1.591l-7.548 7.548a1.125 1.125 0 1 1-1.59-1.59l7.548-7.549ZM20.204 2.205a1.125 1.125 0 1 1 1.591 1.59l-7.548 7.549a1.125 1.125 0 1 1-1.59-1.591l7.547-7.548Z"/>
  <path fill="#888" d="m8 1.875.134.007c.31.038.593.203.778.459l13 18A1.127 1.127 0 0 1 21 22.125h-5c-.36 0-.7-.173-.912-.466l-13-18A1.127 1.127 0 0 1 3 1.875h5Zm8.575 18h2.223L7.425 4.125H5.202l11.373 15.75Z"/>
</svg>
